packages/icons/src/upstream-proxies-icon.svg

<svg viewBox="0 0 13 12" fill="none" xmlns="http://www.w3.org/2000/svg">
<path d="M11.2368 2.58871C11.2356 2.58459 11.2345 2.58066 11.233 2.57654C11.2219 2.54472 11.2054 2.51588 11.1845 2.49079C11.1831 2.48911 11.1827 2.48686 11.1813 2.48518L9.77077 0.843798C9.71954 0.784074 9.64613 0.75 9.56893 0.75H3.93106C3.85386 0.75 3.78045 0.784262 3.72905 0.843798L2.31872 2.48518C2.31728 2.48686 2.31692 2.4893 2.31529 2.49117C2.29473 2.51626 2.27832 2.5449 2.26714 2.57654C2.26569 2.58066 2.26461 2.58497 2.26335 2.58909C2.25541 2.61549 2.25 2.64301 2.25 2.67203V10.9692C2.25 11.1242 2.37103 11.25 2.52056 11.25H10.9794C11.1288 11.25 11.25 11.1242 11.25 10.9692V2.67203C11.2502 2.64282 11.2448 2.6153 11.2368 2.58871ZM5.52194 8.48416H7.9786V8.75208C7.9786 8.88351 7.87561 8.99041 7.74899 8.99041H5.75119C5.62475 8.99041 5.52194 8.88351 5.52194 8.75208V8.48416ZM2.79129 7.92249V5.71851H4.981V5.98661C4.981 6.42734 5.3266 6.78605 5.75137 6.78605H7.74917C8.17412 6.78605 8.51989 6.42752 8.51989 5.98661V5.71851H10.7092V7.92231L2.79129 7.92249ZM4.98082 2.95286V3.22078C4.98082 3.66168 5.32642 4.0204 5.75119 4.0204H7.74899C8.17394 4.0204 8.51971 3.66168 8.51971 3.22078V2.95286H10.7091V5.15684H2.79129V2.95286H4.98082ZM7.97878 2.95286V3.22078C7.97878 3.35202 7.87579 3.45873 7.74917 3.45873H5.75119C5.62475 3.45873 5.52194 3.35202 5.52194 3.22078V2.95286H7.97878ZM5.52194 5.71851H7.9786V5.98661C7.9786 6.11767 7.87561 6.22439 7.74899 6.22439H5.75119C5.62475 6.22439 5.52194 6.11786 5.52194 5.98661V5.71851ZM4.05227 1.31148H9.4479L10.3759 2.39119H3.12462L4.05227 1.31148ZM10.7091 10.6883H2.79129V8.48416H4.981V8.75208C4.981 9.19317 5.3266 9.55208 5.75137 9.55208H7.74917C8.17412 9.55208 8.51989 9.19317 8.51989 8.75208V8.48398H10.7092L10.7091 10.6883Z" fill="#6B6D85"/>
</svg>

<svg xmlns="http://www.w3.org/2000/svg" fill="none" viewBox="0 0 13 12"><path fill="currentColor" d="m11.237 2.589-.004-.012a.275.275 0 0 0-.049-.086l-.003-.006L9.771.844A.266.266 0 0 0 9.569.75H3.93a.267.267 0 0 0-.202.094l-1.41 1.641-.004.006a.283.283 0 0 0-.048.086l-.004.012a.286.286 0 0 0-.013.083v8.297c0 .155.121.281.27.281h8.46c.149 0 .27-.126.27-.28V2.671a.28.28 0 0 0-.013-.083ZM5.522 8.484h2.457v.268a.234.234 0 0 1-.23.238H5.751a.234.234 0 0 1-.23-.238v-.268Zm-2.73-.562V5.72H4.98v.268c0 .44.346.8.77.8H7.75c.425 0 .77-.36.77-.8v-.268h2.19v2.203H2.791Zm2.189-4.97v.269c0 .44.345.8.77.8H7.75c.425 0 .77-.36.77-.8v-.268h2.19v2.204H2.791V2.953h2.19Zm2.998 0v.269a.234.234 0 0 1-.23.238H5.751a.234.234 0 0 1-.23-.238v-.268H7.98ZM5.522 5.72h2.457v.268a.234.234 0 0 1-.23.237H5.751a.234.234 0 0 1-.23-.237v-.268ZM4.052 1.31h5.396l.928 1.08H3.125l.927-1.08Zm6.657 9.377H2.791V8.484h2.19v.268c0 .441.346.8.77.8H7.75c.425 0 .77-.359.77-.8v-.268h2.19v2.204Z"/></svg>
